public/assets/img/home1/icon/zepline-icon.svg

<svg width="24" height="24" viewBox="0 0 24 24" fill="none" xmlns="http://www.w3.org/2000/svg">
<mask id="mask0_1531_62711" style="mask-type:alpha" maskUnits="userSpaceOnUse" x="0" y="0" width="24" height="24">
<rect width="24" height="24" fill="#D9D9D9"/>
</mask>
<g mask="url(#mask0_1531_62711)">
<path d="M3.69991 15.6393L2.44441 16.0985L2.37759 19.8362L6.72347 18.2473C5.23163 17.7473 4.14367 16.866 3.69991 15.6393Z" fill="#FDBD39"/>
<path d="M4.35685 11.686L0 13.279L2.44418 16.0995L3.69968 15.6404C3.25692 14.4177 3.53015 13.0374 4.35685 11.686Z" fill="#F69833"/>
<path d="M11.687 6.29157C6.1395 8.31964 2.56248 12.5055 3.69931 15.6395L23.7883 8.29469C22.6515 5.16075 17.2346 4.26349 11.687 6.29157Z" fill="#FECF33"/>
<path d="M15.7997 17.6434C21.3472 15.6153 24.9302 11.4484 23.7874 8.2955L3.69844 15.6393C4.84125 18.7932 10.2522 19.6715 15.7997 17.6434Z" fill="#EE6723"/>
<path d="M23.7875 8.29462L3.69954 15.6394C4.09244 16.7253 5.59326 17.2603 7.69739 17.2603C9.74966 17.2603 12.3763 16.7523 15.1147 15.7512C20.6622 13.7231 24.5643 10.4385 23.7875 8.29462Z" fill="#F69833"/>
<path d="M19.7898 6.6748C17.7385 6.6748 15.1108 7.18282 12.3725 8.18388C6.82493 10.212 2.92281 13.4956 3.69965 15.6395L23.7886 8.29467C23.3947 7.20877 21.8949 6.6748 19.7898 6.6748Z" fill="#FDBD39"/>
<path d="M18.6797 20.0351C18.0883 20.0351 17.2168 19.5011 16.0879 18.4472C14.7527 17.2006 13.2239 15.3741 11.7809 13.3051C10.339 11.2361 9.15427 9.16811 8.44425 7.48038C7.6714 5.64194 7.56071 4.51212 8.11616 4.12088C8.2448 4.03305 8.39738 3.98813 8.55294 3.99213C9.00469 3.99213 9.88623 4.32848 11.5147 5.93337L11.5506 5.9683L11.5456 6.01821C11.5346 6.13398 11.5247 6.24976 11.5157 6.36454L11.4977 6.5911L11.3382 6.43041C9.58307 4.66083 8.81122 4.4702 8.55993 4.4702C8.48813 4.4702 8.43128 4.48418 8.3904 4.51312C8.14907 4.68279 8.13312 5.51318 8.88302 7.29474C9.58008 8.95153 10.7478 10.9886 12.1709 13.0306C13.5949 15.0737 15.1007 16.8722 16.413 18.0968C17.8271 19.4173 18.4643 19.56 18.6727 19.56C18.7445 19.56 18.8024 19.545 18.8462 19.5141C19.1005 19.3354 19.1005 18.4462 18.2649 16.5279L18.226 16.44L18.3097 16.3941C18.3935 16.3482 18.4753 16.3033 18.5511 16.2594L18.6518 16.2025L18.6986 16.3083C19.291 17.6677 19.8454 19.3953 19.1185 19.9063C18.9898 19.9942 18.8363 20.0391 18.6797 20.0351Z" fill="#EE6723"/>
<path d="M15.9336 17.5858L15.9256 17.6896C15.785 19.4262 15.416 21.5142 14.4527 21.599C14.4328 21.601 14.4128 21.601 14.3939 21.601C13.7397 21.601 13.1204 20.6628 12.555 18.8134C12.0185 17.0628 11.6027 14.7134 11.3843 12.1972C11.1649 9.68109 11.1679 7.29471 11.3933 5.47722C11.6386 3.49705 12.1053 2.46306 12.7814 2.40317C12.8013 2.40118 12.8223 2.40018 12.8422 2.40018C13.3169 2.40018 14.0319 2.93814 14.7639 5.44329L14.2862 5.53511C14.0419 4.69873 13.7756 4.01805 13.5113 3.54895C13.267 3.11679 13.0287 2.87825 12.8422 2.87825C12.8362 2.87825 12.8302 2.87825 12.8233 2.87925C12.5301 2.9052 12.1033 3.61583 11.8659 5.53611C11.6446 7.32066 11.6416 9.67211 11.858 12.1553C12.0744 14.6395 12.4832 16.954 13.0097 18.6727C13.2451 19.4422 13.5034 20.077 13.7577 20.5071C13.991 20.9044 14.2174 21.123 14.3939 21.123C14.3999 21.123 14.4059 21.1229 14.4118 21.122C14.6921 21.098 15.2206 20.3574 15.443 17.7535L15.9336 17.5858Z" fill="#EE6723"/>
</g>
</svg>

<svg xmlns="http://www.w3.org/2000/svg" width="24" height="24" fill="none" viewBox="0 0 24 24">
    <mask id="a" width="24" height="24" x="0" y="0" maskUnits="userSpaceOnUse" style="mask-type:alpha">
        <path fill="#d9d9d9" d="M0 0h24v24H0z"/>
    </mask>
    <g mask="url(#a)">
        <path fill="#fdbd39" d="m3.7 15.64-1.256.459-.066 3.737 4.345-1.589c-1.491-.5-2.58-1.381-3.023-2.608"/>
        <path fill="#f69833" d="M4.357 11.686 0 13.279l2.444 2.82L3.7 15.64c-.443-1.222-.17-2.603.657-3.954"/>
        <path fill="#fecf33" d="M11.687 6.292C6.14 8.32 2.562 12.506 3.699 15.64l20.09-7.345C22.65 5.16 17.234 4.263 11.686 6.292"/>
        <path fill="#ee6723" d="M15.8 17.643c5.547-2.028 9.13-6.195 7.987-9.347L3.698 15.639c1.143 3.154 6.554 4.033 12.102 2.004"/>
        <path fill="#f69833" d="M23.788 8.295 3.7 15.639c.392 1.086 1.893 1.621 3.997 1.621 2.053 0 4.68-.508 7.418-1.509 5.547-2.028 9.45-5.312 8.673-7.456"/>
        <path fill="#fdbd39" d="M19.79 6.675c-2.052 0-4.68.508-7.417 1.509-5.548 2.028-9.45 5.312-8.673 7.456l20.089-7.345c-.394-1.086-1.894-1.62-4-1.62"/>
        <path fill="#ee6723" d="M18.68 20.035c-.592 0-1.463-.534-2.592-1.588-1.335-1.246-2.864-3.073-4.307-5.142-1.442-2.069-2.627-4.137-3.337-5.825-.773-1.838-.883-2.968-.328-3.36a.74.74 0 0 1 .437-.128c.452 0 1.333.336 2.962 1.941l.036.035-.005.05-.03.347-.018.226-.16-.16C9.583 4.66 8.811 4.47 8.56 4.47a.3.3 0 0 0-.17.042c-.24.17-.257 1 .493 2.782.697 1.657 1.865 3.694 3.288 5.736 1.424 2.043 2.93 3.841 4.242 5.066 1.414 1.32 2.051 1.463 2.26 1.463q.108 0 .173-.046c.255-.179.255-1.068-.581-2.986l-.039-.088.084-.046q.127-.068.241-.135l.1-.056.048.105c.592 1.36 1.146 3.087.42 3.598a.74.74 0 0 1-.44.13"/>
        <path fill="#ee6723" d="m15.934 17.586-.008.104c-.141 1.736-.51 3.824-1.473 3.909q-.03.002-.06.002c-.653 0-1.273-.938-1.838-2.788-.537-1.75-.952-4.1-1.17-6.616-.22-2.516-.217-4.902.008-6.72.246-1.98.712-3.014 1.388-3.074l.061-.003c.475 0 1.19.538 1.922 3.043l-.478.092c-.244-.836-.51-1.517-.775-1.986-.244-.432-.482-.67-.669-.67h-.019c-.293.026-.72.737-.957 2.657-.221 1.785-.224 4.136-.008 6.62s.625 4.798 1.152 6.517c.235.77.493 1.404.748 1.834.233.397.46.616.636.616l.018-.001c.28-.024.809-.765 1.031-3.369z"/>
    </g>
</svg>
